X:1
T:Title
L:1/8
M:3/4
I:linebreak $
K:D
V:1 treble nm="Voice"
V:1
"D" F2 DF Ad | f3 f ef |"G" g2 bg fg | B3 d cB |"A" A2 EF GA | c2 B2 c2 |1"D" F3 D FB | A3 B AG :|2 %8
"D" d3 A FA | D3 A BA |:"G" G3 A BA |"A" c3 A BA |"D" F3 D FA | d2 c2 d2 |1"A7" e4 ef | e2 A2 G2 | %16
"D" F3 E FG | F2 E2 F2 :|2"A7" E4 EF | G2 F2 E2 |"D" D2 F2 A2 | d2 AB AG |] %22
